packages/bezier-icons/icons/paused.svg

<svg width="24" height="24" viewBox="0 0 24 24" fill="none" xmlns="http://www.w3.org/2000/svg">
<path fill-rule="evenodd" clip-rule="evenodd" d="M3 5C3 3.89543 3.89543 3 5 3H9C10.1046 3 11 3.89543 11 5V19C11 20.1046 10.1046 21 9 21H5C3.89543 21 3 20.1046 3 19V5ZM5 5H9V19H5V5Z" fill="#313234"/>
<path fill-rule="evenodd" clip-rule="evenodd" d="M13 5C13 3.89543 13.8954 3 15 3H19C20.1046 3 21 3.89543 21 5V19C21 20.1046 20.1046 21 19 21H15C13.8954 21 13 20.1046 13 19V5ZM15 5H19V19H15V5Z" fill="#313234"/>
</svg>

<svg xmlns="http://www.w3.org/2000/svg" width="24" height="24" fill="none" viewBox="0 0 24 24"><path fill="#313234" fill-rule="evenodd" d="M3 5a2 2 0 0 1 2-2h4a2 2 0 0 1 2 2v14a2 2 0 0 1-2 2H5a2 2 0 0 1-2-2zm2 0h4v14H5zM13 5a2 2 0 0 1 2-2h4a2 2 0 0 1 2 2v14a2 2 0 0 1-2 2h-4a2 2 0 0 1-2-2zm2 0h4v14h-4z" clip-rule="evenodd"/></svg>
